assets/features/global-acquiring/card.svg

<svg width="40" height="31" viewBox="0 0 40 31" fill="none" xmlns="http://www.w3.org/2000/svg">
<path d="M40 6.42552V3.0196C40 1.34994 38.6432 0 36.965 0H3.03504C1.35684 0 0 1.34994 0 3.0196V6.42552C0 6.7186 0.241018 6.95839 0.535595 6.95839H39.4644C39.759 6.95839 40 6.7186 40 6.42552ZM39.4644 9.7826H0.535595C0.241018 9.7826 0 10.0224 0 10.3155V27.6471C0 29.3167 1.35684 30.6667 3.03504 30.6667H36.965C38.6432 30.6667 40 29.3167 40 27.6471V10.3155C40 10.0224 39.759 9.7826 39.4644 9.7826ZM19.9911 20.9151L19.1743 25.5245C19.1297 25.7776 18.9065 25.9641 18.6476 25.9641H16.8802C16.5454 25.9641 16.2955 25.6666 16.3535 25.338L17.1703 20.7286C17.2149 20.4755 17.4381 20.289 17.6969 20.289H19.4644C19.7992 20.2935 20.0491 20.591 19.9911 20.9151ZM25.7085 20.9151L24.8918 25.5245C24.8471 25.7776 24.624 25.9641 24.3651 25.9641H22.5976C22.2629 25.9641 22.0129 25.6666 22.071 25.338L22.8877 20.7286C22.9324 20.4755 23.1555 20.289 23.4144 20.289H25.1819C25.5166 20.2935 25.7666 20.591 25.7085 20.9151ZM34.2781 20.9151L33.4613 25.5245C33.4166 25.7776 33.1935 25.9641 32.9346 25.9641H28.3151C27.9804 25.9641 27.7304 25.6666 27.7884 25.338L28.6052 20.7286C28.6499 20.4755 28.873 20.289 29.1319 20.289H33.7514C34.0817 20.2935 34.3361 20.591 34.2781 20.9151Z" fill="#7A49E9"/>
</svg>

<svg xmlns="http://www.w3.org/2000/svg" width="40" height="31" fill="none" viewBox="0 0 40 31"><path fill="#7a49e9" d="M40 6.426V3.02C40 1.35 38.643 0 36.965 0H3.035A3.025 3.025 0 0 0 0 3.02v3.406c0 .293.241.532.536.532h38.928c.295 0 .536-.24.536-.532m-.536 3.357H.536a.536.536 0 0 0-.536.533v17.331c0 1.67 1.357 3.02 3.035 3.02h33.93A3.025 3.025 0 0 0 40 27.647V10.316a.536.536 0 0 0-.536-.533M19.991 20.915l-.817 4.61a.535.535 0 0 1-.526.44H16.88a.532.532 0 0 1-.526-.627l.816-4.61a.535.535 0 0 1 .527-.439h1.767a.536.536 0 0 1 .527.626m5.718 0-.817 4.61a.535.535 0 0 1-.527.44h-1.767a.532.532 0 0 1-.527-.627l.817-4.61a.535.535 0 0 1 .526-.439h1.768a.536.536 0 0 1 .527.626m8.57 0-.818 4.61a.535.535 0 0 1-.526.44h-4.62a.532.532 0 0 1-.527-.627l.817-4.61a.535.535 0 0 1 .527-.439h4.62c.33.005.584.302.526.626"/></svg>
